X:1
T:Title
%%score { ( 1 3 ) | ( 2 4 ) }
L:1/8
Q:1/4=106
M:2/4
K:Ab
V:1 treble nm="Grand Piano"
V:3 treble 
V:2 bass 
V:4 bass 
V:1
 A2 G2 | [CA][CE] z2 | F>A G>B | [CA][CA] z2 | [EB]2 [EB]2 | .[CB]2 GF | E2 F2 | E2 z2 | [CA]2 B2 | %9
w: Vincenzo~Pucitta *|||||||||
 cA z2 | B2 c2 | dB z2 | c2 d2 | [Ee]3 [Fd] | [Ec]2 [DB]2 | [CA]2 z2 | [CA]3 [EG] | [DF][DF] z2 | %18
w: |||||||||
 [=DB]3 [FA] | GG z2 | z2 BB | [=DB]3 [DB] | [=DB]3 [FA] | GE z2 | z2 BB | B3 B | [=DB]3 [FA] | %27
w: |||||||||
 GE z2 | [CA]2 B2 | cA z2 | B2 c2 | dB z2 | c2 d2 | [Ee]3 [Fd] | [Ec]2 [DB]2 | [CA]4 | %36
w: |||||||||
 [CA]>[EG] [DF]>[CE] | [DF]>[B,D] [A,C]2 | [CA]>[EG] [DF]>[CE] | [DF]>[B,D] [A,C]2 | %40
w: ||||
 [CA][CA] [CA][CA] | [CA][CA] [CA]2 | cc cc | cc c2 | c2 A2 | e2 c2 | [Fd][Fd] BB | c2 z2 | c2 A2 | %49
w: |||||||||
 e2 c2 | [Fd][Fd] BB | c2 z c | e4 | c2 z c | e4 | [CEA]4 |] %56
w: |||||||
V:2
 [A,C]2 [E,B,E]2 | [A,,A,][A,,A,] z2 | [D,A,D]2 [E,D]2 | [A,,E,][A,,E,] z2 | [E,G,]2 [E,G,]2 | %5
 z A A,,2 | [B,,G,B,]2 [B,,A,B,]2 | [E,G,B,]2 z2 | [A,,A,]2 [E,G,E]2 | [A,E][A,C] z2 | %10
 [E,G,E]2 [A,E]2 | [E,B,E][E,G,E] z2 | [A,E]2 [F,A,F]2 | [C,A,]3 [D,A,] | [E,A,]2 [E,G,]2 | %15
 [A,,A,]2 z2 | [A,,A,]3 [C,A,] | [D,A,][D,A,] z2 | [B,,F,]3 [B,,B,] | [E,B,E][E,B,E] z2 | %20
 z2 [E,G,E][E,G,E] | [B,,F,]3 [B,,F,] | [B,,F,]3 [B,,B,] | [E,B,E][E,G,] z2 | z2 [G,B,E][F,A,=D] | %25
 [E,G,E]3 [E,G,E] | [B,,F,]3 [B,,B,] | [E,B,E][E,G,] z2 | [A,,A,]2 [E,G,E]2 | [A,E][A,C] z2 | %30
 [E,G,E]2 [A,E]2 | [E,B,E][E,G,E] z2 | [A,E]2 [F,A,F]2 | [C,A,]3 [D,A,] | [E,A,]2 [E,G,]2 | %35
 [A,,A,]4 | [A,,E,]>[A,,E,] [A,,A,]>[A,,A,] | [A,,A,]>[A,,E,] [A,,E,]2 | %38
 [A,,E,]>[A,,E,] [A,,A,]>[A,,A,] | [A,,A,]>[A,,E,] [A,,E,]2 | [A,,E,][A,,E,] [A,,E,][A,,E,] | %41
 [A,,E,][A,,E,] [A,,E,]2 | [A,E][A,E] [A,E][A,E] | [A,E][A,E] [A,E]2 | [A,E]2 [A,C]2 | %45
 [A,CE]2 [A,E]2 | [D,A,][D,A,] [E,G,E][E,G,E] | [A,E]2 z2 | [A,E]2 [A,C]2 | [A,CE]2 [A,E]2 | %50
 [D,A,][D,A,] [E,G,E][E,G,E] | [A,E]2 z [A,E] | [E,G,E]4 | [A,E]2 z [A,E] | [E,E]4 | A,,4 |] %56
V:3
 x4 | x4 | x4 | x4 | x4 | z2 [A,C]2 | x4 | x4 | x4 | x4 | x4 | x4 | x4 | x4 | x4 | x4 | x4 | x4 | %18
 x4 | x4 | x4 | x4 | x4 | x4 | x4 | x4 | x4 | x4 | x4 | x4 | x4 | x4 | x4 | x4 | x4 | x4 | x4 | %37
 x4 | x4 | x4 | x4 | x4 | x4 | x4 | x4 | x4 | x4 | x4 | x4 | x4 | x4 | x4 | x4 | x4 | z B, D2 | %55
 x4 |] %56
V:4
 x4 | x4 | x4 | x4 | x4 | [A,,A,]2 z2 | x4 | x4 | x4 | x4 | x4 | x4 | x4 | x4 | x4 | x4 | x4 | x4 | %18
 x4 | x4 | x4 | x4 | x4 | x4 | x4 | x4 | x4 | x4 | x4 | x4 | x4 | x4 | x4 | x4 | x4 | x4 | x4 | %37
 x4 | x4 | x4 | x4 | x4 | x4 | x4 | x4 | x4 | x4 | x4 | x4 | x4 | x4 | x4 | x4 | x4 | .G,2 z2 | %55
 x4 |] %56

